Origami/32x32/apps/vidcutter.svg

<svg width="32" height="32" version="1" xmlns="http://www.w3.org/2000/svg">
 <rect transform="matrix(0,-1,-1,0,0,0)" x="-31" y="-30" width="28" height="28" rx="1.4" ry="1.4" style="opacity:.2"/>
 <rect transform="matrix(0,-1,-1,0,0,0)" x="-30" y="-30" width="28" height="28" rx="1.4" ry="1.4" style="fill:#642c68"/>
 <path d="m4 5v3h3v-3h-3zm21 0v3h3v-3h-3zm-21 7v3h3v-3h-3zm21 0v3h3v-3h-3zm-21 7v3h3v-3h-3zm21 0v3h3v-3h-3zm-21 7v3h3v-3h-3zm21 0v3h3v-3h-3z" style="opacity:.2"/>
 <path d="m4 4v3h3v-3h-3zm21 0v3h3v-3h-3zm-21 7v3h3v-3h-3zm21 0v3h3v-3h-3zm-21 7v3h3v-3h-3zm21 0v3h3v-3h-3zm-21 7v3h3v-3h-3zm21 0v3h3v-3h-3z" style="fill:#ffffff"/>
 <path d="M 3.4003906 2 C 2.6247906 2 2 2.6247906 2 3.4003906 L 2 4.4003906 C 2 3.6247906 2.6247906 3 3.4003906 3 L 28.599609 3 C 29.375209 3 30 3.6247906 30 4.4003906 L 30 3.4003906 C 30 2.6247906 29.375209 2 28.599609 2 L 3.4003906 2 z" style="fill:#ffffff;opacity:.1"/>
 <rect x="9" y="6" width="14" height="9" style="opacity:.2"/>
 <rect x="9" y="5" width="14" height="9" style="fill:#ffffff"/>
 <rect x="9" y="19" width="14" height="9" style="opacity:.2"/>
 <rect x="9" y="18" width="14" height="9" style="fill:#ffffff"/>
 <circle cx="24" cy="23" r="8" style="fill:#96be4e"/>
 <path d="m21.538 19c-0.849 0-1.538 0.689-1.538 1.538 0 0.84967 0.68879 1.5385 1.5385 1.5385 0.27451 0 0.52688-0.08555 0.75-0.21154l1.212 1.135-1.2115 1.1346c-0.22312-0.12599-0.47549-0.21154-0.75-0.21154-0.849 0-1.538 0.689-1.538 1.539 0 0.849 0.689 1.538 1.538 1.538 0.84967 0 1.5385-0.68879 1.5385-1.5385 0-0.14102-0.02215-0.2741-0.05766-0.40385l1.3077-1.2692 2.75 2.5962h0.92308v-0.61538l-4.9808-4.8269c0.03557-0.12975 0.05766-0.26282 0.05766-0.40385 0-0.85-0.689-1.539-1.539-1.539zm0 0.92308c0.33986 0 0.61538 0.27552 0.61538 0.61538s-0.27552 0.61538-0.61538 0.61538-0.61538-0.27552-0.61538-0.61538 0.27552-0.61538 0.61538-0.61538zm5.5385-0.30769-2.4231 2.2885 0.80769 0.78846 2.5385-2.4615v-0.61538zm-5.5385 5.2308c0.33986 0 0.61538 0.27552 0.61538 0.61538s-0.27552 0.61538-0.61538 0.61538-0.61538-0.27552-0.61538-0.61538 0.27552-0.61538 0.61538-0.61538z" style="fill:#ffffff"/>
 <path d="M 31.979,23.424 A 8,8 0 0 1 24,31 8,8 0 0 1 16.021,23.576 8,8 0 0 0 16,24 a 8,8 0 0 0 8,8 8,8 0 0 0 8,-8 8,8 0 0 0 -0.02148,-0.57617 z" style="opacity:.2"/>
</svg>

<svg xmlns="http://www.w3.org/2000/svg" width="32" height="32" version="1">
 <rect style="opacity:0.2" width="28" height="28" x="-31" y="-30" rx="1.4" ry="1.4" transform="matrix(0,-1,-1,0,0,0)"/>
 <rect style="fill:#642c68" width="28" height="28" x="-30" y="-30" rx="1.4" ry="1.4" transform="matrix(0,-1,-1,0,0,0)"/>
 <path style="opacity:0.2" d="M 4,5 4,8 7,8 7,5 4,5 Z m 21,0 0,3 3,0 0,-3 -3,0 z m -21,7 0,3 3,0 0,-3 -3,0 z m 21,0 0,3 3,0 0,-3 -3,0 z m -21,7 0,3 3,0 0,-3 -3,0 z m 21,0 0,3 3,0 0,-3 -3,0 z m -21,7 0,3 3,0 0,-3 -3,0 z m 21,0 0,3 3,0 0,-3 -3,0 z"/>
 <path style="fill:#ffffff" d="M 4 4 L 4 7 L 7 7 L 7 4 L 4 4 z M 25 4 L 25 7 L 28 7 L 28 4 L 25 4 z M 4 11 L 4 14 L 7 14 L 7 11 L 4 11 z M 25 11 L 25 14 L 28 14 L 28 11 L 25 11 z M 4 18 L 4 21 L 7 21 L 7 18 L 4 18 z M 25 18 L 25 21 L 28 21 L 28 18 L 25 18 z M 4 25 L 4 28 L 7 28 L 7 25 L 4 25 z M 25 25 L 25 28 L 28 28 L 28 25 L 25 25 z"/>
 <path style="fill:#ffffff;opacity:0.1" d="M 3.4003906 2 C 2.6247906 2 2 2.6247906 2 3.4003906 L 2 4.4003906 C 2 3.6247906 2.6247906 3 3.4003906 3 L 28.599609 3 C 29.375209 3 30 3.6247906 30 4.4003906 L 30 3.4003906 C 30 2.6247906 29.375209 2 28.599609 2 L 3.4003906 2 z"/>
 <rect style="opacity:0.2" width="14" height="9" x="9" y="6"/>
 <rect style="fill:#ffffff" width="14" height="9" x="9" y="5"/>
 <rect style="opacity:0.2" width="14" height="9" x="9" y="19"/>
 <rect style="fill:#ffffff" width="14" height="9" x="9" y="18"/>
 <circle style="fill:#96be4e" cx="24" cy="23" r="8"/>
 <path style="fill:#ffffff" d="M 21.538,19 C 20.689,19 20,19.689 20,20.538 c 0,0.84967 0.68879,1.5385 1.5385,1.5385 0.27451,0 0.52688,-0.08555 0.75,-0.21154 l 1.212,1.135 -1.2115,1.1346 c -0.22312,-0.12599 -0.47549,-0.21154 -0.75,-0.21154 -0.849,0 -1.538,0.689 -1.538,1.539 0,0.849 0.689,1.538 1.538,1.538 0.84967,0 1.5385,-0.68879 1.5385,-1.5385 0,-0.14102 -0.02215,-0.2741 -0.05766,-0.40385 l 1.3077,-1.2692 2.75,2.5962 0.92308,0 0,-0.61538 -4.9808,-4.8269 c 0.03557,-0.12975 0.05766,-0.26282 0.05766,-0.40385 0,-0.85 -0.689,-1.539 -1.539,-1.539 z m 0,0.92308 c 0.33986,0 0.61538,0.27552 0.61538,0.61538 0,0.33986 -0.27552,0.61538 -0.61538,0.61538 -0.33986,0 -0.61538,-0.27552 -0.61538,-0.61538 0,-0.33986 0.27552,-0.61538 0.61538,-0.61538 z m 5.5385,-0.30769 -2.4231,2.2885 0.80769,0.78846 2.5385,-2.4615 0,-0.61538 z m -5.5385,5.2308 c 0.33986,0 0.61538,0.27552 0.61538,0.61538 0,0.33986 -0.27552,0.61538 -0.61538,0.61538 -0.33986,0 -0.61538,-0.27552 -0.61538,-0.61538 0,-0.33986 0.27552,-0.61538 0.61538,-0.61538 z"/>
 <path style="opacity:0.2" d="M 31.979,23.424 A 8,8 0 0 1 24,31 8,8 0 0 1 16.021,23.576 8,8 0 0 0 16,24 a 8,8 0 0 0 8,8 8,8 0 0 0 8,-8 8,8 0 0 0 -0.02148,-0.57617 z"/>
</svg>
